src/topics/icons/ansible.svg

<svg height="315" preserveAspectRatio="xMidYMid" viewBox="0 0 256 315" width="256" xmlns="http://www.w3.org/2000/svg"><g fill="#1a1918" transform="translate(0 281.859985)"><path d="m67.516834 32.0035248c-.5415235 0-1.1261669-.1368509-1.5321153-.6858322l-17.3835266-22.86120646v23.31869086h-3.9643096v-28.71424635c0-1.1425279.9459181-2.05710236 2.0277997-2.05710236.6297057 0 1.1708407.18259938 1.5748468.73158069l17.3396297 22.81585232v-23.2275883h3.9639211v28.6681035c0 1.1890651-.945918 2.0117483-2.0262458 2.0117483"/><path d="m100.306277 32.277976c-3.9627553 0-8.1069253-.8234719-11.9803334-2.2858446l.9463065-3.2927046c3.5579727 1.1433166 7.4309924 1.9663942 11.0340269 1.9663942 4.999576 0 7.61163-1.7834005 7.61163-4.2975929 0-2.2866333-2.027411-3.4295556-9.0081698-6.7218659-6.9807587-3.2919159-9.7272231-5.3947667-9.7272231-9.51054898 0-5.16563012 3.9627557-7.27005846 11.4384219-7.27005846 3.108127 0 7.881615.64087257 10.630021 1.46395015l-.630871 3.38301841c-3.018391-.7311863-6.80051-1.23402478-9.908637-1.23402478-5.2683947 0-7.4306041 1.00528257-7.4306041 3.52065812 0 2.46844394 1.5756237 3.52026374 8.9619421 6.94981934 7.791879 3.612155 9.773451 5.441304 9.773451 9.1899155 0 5.4416983-5.13515 8.1388845-11.709961 8.1388845"/><path d="m130.798131 1.323673h4.09833v30.4511096h-4.09833z"/><path d="m169.757834 17.9669168h-10.179787v10.3340209h10.179787c3.46746 0 5.584219-2.1951364 5.584219-5.2590989 0-2.8805743-2.206495-5.074922-5.584219-5.074922m-1.982737-13.16845243h-8.19705v9.73929123h8.19705c3.288376 0 5.67512-2.1036396 5.67512-5.02956799 0-2.88057432-2.072085-4.70972324-5.67512-4.70972324m2.027411 26.97659433h-12.24993c-1.171618 0-2.072474-.9149689-2.072474-2.0574968v-26.33611609c0-1.09796261.900856-2.05749674 2.072474-2.05749674h10.133171c6.21509 0 9.907861 3.0631737 9.907861 7.86439383 0 2.6056893-1.531339 5.0291736-3.873797 6.4465865 3.469402 1.0518198 5.809918 3.9319997 5.809918 7.4069094 0 4.8465742-4.007429 8.7332199-9.727223 8.7332199"/><path d="m199.212246 31.7750981c-1.124224 0-2.025468-.9603229-2.025468-2.0574968v-28.39361279h4.097553v26.74785209h16.303976v3.7032575z"/><path d="m245.526181 32.277976c-8.377298 0-13.421547-3.1089221-13.421547-9.3729093 0-2.9720712 1.666913-5.806897 4.909839-7.1328131-2.612443-1.6461551-3.963144-3.9781425-3.963144-6.53847777 0-5.66925737 4.369869-8.36802107 12.565754-8.36802107 2.74763 0 6.620261.32063348 9.863575 1.05260855l-.451011 3.38301842c-3.422009-.54898131-6.621038-.86803725-9.728388-.86803725-5.314622 0-8.152376 1.46237261-8.152376 4.98342512 0 2.7894718 2.612831 4.9838195 6.081456 4.9838195h7.025044c.990981 0 1.756261.7773291 1.756261 1.7372577 0 1.0056769-.76528 1.7830061-1.756261 1.7830061h-7.565013c-3.964698 0-6.485463 1.9656054-6.485463 4.9842138 0 4.4348382 4.098331 5.7607543 9.232315 5.7607543 2.792692 0 6.574422-.3648044 9.636711-1.0967795l.586974 3.33727c-2.928267.823472-6.757002 1.3716645-10.134726 1.3716645"/><path d="m14.1379982 7.03469555 7.1777117 17.98426475-10.8405706-8.6693298zm12.7514416 22.12765385-11.0398544-26.97462242c-.315047-.77732913-.945918-1.18906511-1.7115872-1.18906511s-1.441214.41173598-1.756261 1.18906511l-12.11785131 29.58741052h4.14455842l4.79757208-12.1982699 14.31424581 11.7407855c.5757087.4720766.9909803.6858323 1.5321153.6858323 1.0803278 0 2.0262459-.8226832 2.0262459-2.011354 0-.1928533-.0679818-.4996834-.1891836-.829782z"/></g><path d="m255.878566 127.868028c0 70.455143-57.110072 127.564712-127.566219 127.564712-70.4501205 0-127.56621967-57.109569-127.56621967-127.564712 0-70.4501203 57.11609917-127.56621946 127.56621967-127.56621946 70.456147 0 127.566219 57.11609916 127.566219 127.56621946" fill="#1a1918"/><path d="m130.459863 78.228885 33.011597 81.476253-49.863453-39.277803zm58.644479 100.245238-50.778572-122.2020732c-1.449524-3.5243644-4.348072-5.3892589-7.865907-5.3892589-3.524364 0-6.633861 1.8648945-8.083386 5.3892589l-55.7328725 134.0403612h19.0653195l22.06231-55.265268 65.838863 53.189927c2.647919 2.141138 4.55852 3.109496 7.0422 3.109496 4.973889 0 9.321459-3.728784 9.321459-9.111011 0-.875943-.309393-2.266201-.869414-3.761432z" fill="#fff"/></svg>

<?xml version="1.0" encoding="UTF-8" standalone="no"?>
<svg width="256px" height="315px" viewBox="0 0 256 315" version="1.1" xmlns="http://www.w3.org/2000/svg" xmlns:xlink="http://www.w3.org/1999/xlink" preserveAspectRatio="xMidYMid">
	<g>
		<g transform="translate(0.000000, 281.859985)" fill="#1A1918">
			<path d="M67.516834,32.0035248 C66.9753105,32.0035248 66.3906671,31.8666739 65.9847187,31.3176926 L48.6011921,8.45648614 L48.6011921,31.775177 L44.6368825,31.775177 L44.6368825,3.06093065 C44.6368825,1.91840275 45.5828006,1.00382829 46.6646822,1.00382829 C47.2943879,1.00382829 47.8355229,1.18642767 48.239529,1.73540898 L65.5791587,24.5512613 L65.5791587,1.323673 L69.5430798,1.323673 L69.5430798,29.9917765 C69.5430798,31.1808416 68.5971618,32.0035248 67.516834,32.0035248"></path>
			<path d="M100.306277,32.277976 C96.3435217,32.277976 92.1993517,31.4545041 88.3259436,29.9921314 L89.2722501,26.6994268 C92.8302228,27.8427434 96.7032425,28.665821 100.306277,28.665821 C105.305853,28.665821 107.917907,26.8824205 107.917907,24.3682281 C107.917907,22.0815948 105.890496,20.9386725 98.9097372,17.6463622 C91.9289785,14.3544463 89.1825141,12.2515955 89.1825141,8.13581322 C89.1825141,2.9701831 93.1452698,0.865754758 100.620936,0.865754758 C103.729063,0.865754758 108.502551,1.50662733 111.250957,2.32970491 L110.620086,5.71272332 C107.601695,4.98153702 103.819576,4.47869854 100.711449,4.47869854 C95.4430543,4.47869854 93.2808449,5.48398111 93.2808449,7.99935666 C93.2808449,10.4678006 94.8564686,11.5196204 102.242787,14.949176 C110.034666,18.561331 112.016238,20.39048 112.016238,24.1390915 C112.016238,29.5807898 106.881088,32.277976 100.306277,32.277976"></path>
			<path d="M130.798131,1.323673 L134.896461,1.323673 L134.896461,31.7747826 L130.798131,31.7747826 L130.798131,1.323673 Z"></path>
			<path d="M169.757834,17.9669168 L159.578047,17.9669168 L159.578047,28.3009377 L169.757834,28.3009377 C173.225294,28.3009377 175.342053,26.1058013 175.342053,23.0418388 C175.342053,20.1612645 173.135558,17.9669168 169.757834,17.9669168 M167.775097,4.79846437 L159.578047,4.79846437 L159.578047,14.5377556 L167.775097,14.5377556 C171.063473,14.5377556 173.450217,12.434116 173.450217,9.50818761 C173.450217,6.62761329 171.378132,4.79846437 167.775097,4.79846437 M169.802508,31.7750587 L157.552578,31.7750587 C156.38096,31.7750587 155.480104,30.8600898 155.480104,29.7175619 L155.480104,3.38144581 C155.480104,2.2834832 156.38096,1.32394907 157.552578,1.32394907 L167.685749,1.32394907 C173.900839,1.32394907 177.59361,4.38712277 177.59361,9.1883429 C177.59361,11.7940322 176.062271,14.2175165 173.719813,15.6349294 C177.189215,16.6867492 179.529731,19.5669291 179.529731,23.0418388 C179.529731,27.888413 175.522302,31.7750587 169.802508,31.7750587"></path>
			<path d="M199.212246,31.7750981 C198.088022,31.7750981 197.186778,30.8147752 197.186778,29.7176013 L197.186778,1.32398851 L201.284331,1.32398851 L201.284331,28.0718406 L217.588307,28.0718406 L217.588307,31.7750981 L199.212246,31.7750981 Z"></path>
			<path d="M245.526181,32.277976 C237.148883,32.277976 232.104634,29.1690539 232.104634,22.9050667 C232.104634,19.9329955 233.771547,17.0981697 237.014473,15.7722536 C234.40203,14.1260985 233.051329,11.7941111 233.051329,9.23377583 C233.051329,3.56451846 237.421198,0.865754758 245.617083,0.865754758 C248.364713,0.865754758 252.237344,1.18638824 255.480658,1.91836331 L255.029647,5.30138173 C251.607638,4.75240042 248.408609,4.43334448 245.301259,4.43334448 C239.986637,4.43334448 237.148883,5.89571709 237.148883,9.4167696 C237.148883,12.2062414 239.761714,14.4005891 243.230339,14.4005891 L250.255383,14.4005891 C251.246364,14.4005891 252.011644,15.1779182 252.011644,16.1378468 C252.011644,17.1435237 251.246364,17.9208529 250.255383,17.9208529 L242.69037,17.9208529 C238.725672,17.9208529 236.204907,19.8864583 236.204907,22.9050667 C236.204907,27.3399049 240.303238,28.665821 245.437222,28.665821 C248.229914,28.665821 252.011644,28.3010166 255.073933,27.5690415 L255.660907,30.9063115 C252.73264,31.7297835 248.903905,32.277976 245.526181,32.277976"></path>
			<path d="M14.1379982,7.03469555 L21.3157099,25.0189603 L10.4751393,16.3496305 L14.1379982,7.03469555 Z M26.8894398,29.1623494 L15.8495854,2.18772698 C15.5345384,1.41039785 14.9036674,0.99866187 14.1379982,0.99866187 C13.372329,0.99866187 12.6967842,1.41039785 12.3817372,2.18772698 L0.263885888,31.7751375 L4.40844431,31.7751375 L9.20601639,19.5768676 L23.5202622,31.3176531 C24.0959709,31.7897297 24.5112425,32.0034854 25.0523775,32.0034854 C26.1327053,32.0034854 27.0786234,31.1808022 27.0786234,29.9921314 C27.0786234,29.7992781 27.0106416,29.492448 26.8894398,29.1623494 L26.8894398,29.1623494 Z"></path>
		</g>
		<g>
			<path d="M255.878566,127.868028 C255.878566,198.323171 198.768494,255.43274 128.312347,255.43274 C57.8622265,255.43274 0.746127325,198.323171 0.746127325,127.868028 C0.746127325,57.4179077 57.8622265,0.301808544 128.312347,0.301808544 C198.768494,0.301808544 255.878566,57.4179077 255.878566,127.868028" fill="#1A1918"></path>
			<path d="M130.459863,78.228885 L163.47146,159.705138 L113.608007,120.427335 L130.459863,78.228885 Z M189.104342,178.474123 L138.32577,56.2720498 C136.876246,52.7476854 133.977698,50.8827909 130.459863,50.8827909 C126.935499,50.8827909 123.826002,52.7476854 122.376477,56.2720498 L66.6436045,190.312411 L85.708924,190.312411 L107.771234,135.047143 L173.610097,188.23707 C176.258016,190.378208 178.168617,191.346566 180.652297,191.346566 C185.626186,191.346566 189.973756,187.617782 189.973756,182.235555 C189.973756,181.359612 189.664363,179.969354 189.104342,178.474123 L189.104342,178.474123 Z" fill="#FFFFFF"></path>
		</g>
	</g>
</svg>
